X:1
T:Mr. Alexander Wattie (Drummer in the Castle Newe Band of Musicians)
T:Mr. Alexander Wattie (Drummer in the Castle Newe Band of Musicians)
T:Alexander Walker
C:Alexander Walker
L:1/8
M:2/2
K:G
V:1 treble 
V:1
 c | B>G G/G/G (BG)(dG) | (eG)(dG) (AB)cg | B>G G/G/G BGdG | cBAG F[FA][FA]c | B>G G/G/G (BG)(dg) | %6
 (eG)(dG) ABcg | bagf gfed | Be^df gee || f | g>e e/e/e (Be)(Ge) | (Fd)(AB) FDDf | %12
 g>e e/e/e (Be)(Ge) | BAGF (E2 E)f | g>e e/e/e (Be)(Be) | (Fd)(AB) FDDf | gfed edcB | cBAG Fedc || %18

